static/img/kroki/fc5d2b16c9a0e5ff0c2a5fcc3a22d3a5.svg

<?xml version="1.0" encoding="us-ascii" standalone="no"?><svg xmlns="http://www.w3.org/2000/svg" xmlns:xlink="http://www.w3.org/1999/xlink" contentStyleType="text/css" height="846px" preserveAspectRatio="none" style="width:325px;height:846px;" version="1.1" viewBox="0 0 325 846" width="325px" zoomAndPan="magnify"><defs/><g><!--class aws_backup_protected_resource--><g id="elem_aws_backup_protected_resource"><rect codeLine="23" fill="#3D176E" height="205.5703" id="aws_backup_protected_resource" rx="2.5" ry="2.5" style="stroke:#000D19;stroke-width:0.5;" width="311" x="7" y="633.84"/><ellipse cx="22" cy="653.7345" fill="#ADD1B2" rx="11" ry="11" style="stroke:#181818;stroke-width:1.0;"/><path d="M24.9688,659.3752 Q24.3906,659.672 23.75,659.8127 Q23.1094,659.9689 22.4063,659.9689 Q19.9063,659.9689 18.5781,658.3283 Q17.2656,656.672 17.2656,653.547 Q17.2656,650.422 18.5781,648.7658 Q19.9063,647.1095 22.4063,647.1095 Q23.1094,647.1095 23.75,647.2658 Q24.4063,647.422 24.9688,647.7189 L24.9688,650.4377 Q24.3438,649.8595 23.75,649.5939 Q23.1563,649.3127 22.5313,649.3127 Q21.1875,649.3127 20.5,650.3908 Q19.8125,651.4533 19.8125,653.547 Q19.8125,655.6408 20.5,656.7189 Q21.1875,657.7814 22.5313,657.7814 Q23.1563,657.7814 23.75,657.5158 Q24.3438,657.2345 24.9688,656.6564 L24.9688,659.3752 Z " fill="#000000"/><text fill="#D9B8FF" font-family="Helvetica" font-size="17" lengthAdjust="spacing" textLength="269" x="41" y="659.6198">aws_backup_protected_resource</text><line style="stroke:#000D19;stroke-width:0.5;" x1="8" x2="317" y1="673.6291" y2="673.6291"/><text fill="#D9B8FF" font-family="sans-serif" font-size="14" font-weight="bold" lengthAdjust="spacing" textLength="133" x="18" y="695.6242">last_backup_time</text><text fill="#D9B8FF" font-family="sans-serif" font-size="14" lengthAdjust="spacing" textLength="70" x="151" y="695.6242">: datetime</text><text fill="#D9B8FF" font-family="sans-serif" font-size="14" font-weight="bold" lengthAdjust="spacing" textLength="170" x="18" y="721.9211">last_backup_vault_arn</text><text fill="#D9B8FF" font-family="sans-serif" font-size="14" lengthAdjust="spacing" textLength="48" x="188" y="721.9211">: string</text><text fill="#D9B8FF" font-family="sans-serif" font-size="14" font-weight="bold" lengthAdjust="spacing" textLength="186" x="18" y="748.2179">last_recovery_point_arn</text><text fill="#D9B8FF" font-family="sans-serif" font-size="14" lengthAdjust="spacing" textLength="48" x="204" y="748.2179">: string</text><text fill="#D9B8FF" font-family="sans-serif" font-size="14" font-weight="bold" lengthAdjust="spacing" textLength="105" x="18" y="774.5148">resource_arn</text><text fill="#D9B8FF" font-family="sans-serif" font-size="14" lengthAdjust="spacing" textLength="48" x="123" y="774.5148">: string</text><text fill="#D9B8FF" font-family="sans-serif" font-size="14" font-weight="bold" lengthAdjust="spacing" textLength="122" x="18" y="800.8117">resource_name</text><text fill="#D9B8FF" font-family="sans-serif" font-size="14" lengthAdjust="spacing" textLength="48" x="140" y="800.8117">: string</text><text fill="#D9B8FF" font-family="sans-serif" font-size="14" font-weight="bold" lengthAdjust="spacing" textLength="114" x="18" y="827.1086">resource_type</text><text fill="#D9B8FF" font-family="sans-serif" font-size="14" lengthAdjust="spacing" textLength="48" x="132" y="827.1086">: string</text></g><!--class aws_resource--><g id="elem_aws_resource"><rect codeLine="31" fill="#3D176E" height="74.0859" id="aws_resource" rx="2.5" ry="2.5" style="stroke:#000D19;stroke-width:0.5;" width="155" x="85" y="438.75"/><ellipse cx="100" cy="458.6445" fill="#ADD1B2" rx="11" ry="11" style="stroke:#181818;stroke-width:1.0;"/><path d="M102.9688,464.2852 Q102.3906,464.582 101.75,464.7227 Q101.1094,464.8789 100.4063,464.8789 Q97.9063,464.8789 96.5781,463.2383 Q95.2656,461.582 95.2656,458.457 Q95.2656,455.332 96.5781,453.6758 Q97.9063,452.0195 100.4063,452.0195 Q101.1094,452.0195 101.75,452.1758 Q102.4063,452.332 102.9688,452.6289 L102.9688,455.3477 Q102.3438,454.7695 101.75,454.5039 Q101.1563,454.2227 100.5313,454.2227 Q99.1875,454.2227 98.5,455.3008 Q97.8125,456.3633 97.8125,458.457 Q97.8125,460.5508 98.5,461.6289 Q99.1875,462.6914 100.5313,462.6914 Q101.1563,462.6914 101.75,462.4258 Q102.3438,462.1445 102.9688,461.5664 L102.9688,464.2852 Z " fill="#000000"/><text fill="#D9B8FF" font-family="Helvetica" font-size="17" lengthAdjust="spacing" textLength="113" x="119" y="464.5298">aws_resource</text><line style="stroke:#000D19;stroke-width:0.5;" x1="86" x2="239" y1="478.5391" y2="478.5391"/><text fill="#D9B8FF" font-family="sans-serif" font-size="14" font-weight="bold" lengthAdjust="spacing" textLength="26" x="96" y="500.5342">arn</text><text fill="#D9B8FF" font-family="sans-serif" font-size="14" lengthAdjust="spacing" textLength="48" x="122" y="500.5342">: string</text></g><!--class resource--><g id="elem_resource"><rect codeLine="34" fill="#3D176E" height="310.7578" id="resource" rx="2.5" ry="2.5" style="stroke:#000D19;stroke-width:0.5;" width="227" x="49" y="7"/><ellipse cx="117.75" cy="26.8945" fill="#ADD1B2" rx="11" ry="11" style="stroke:#181818;stroke-width:1.0;"/><path d="M120.7188,32.5352 Q120.1406,32.832 119.5,32.9727 Q118.8594,33.1289 118.1563,33.1289 Q115.6563,33.1289 114.3281,31.4883 Q113.0156,29.832 113.0156,26.707 Q113.0156,23.582 114.3281,21.9258 Q115.6563,20.2695 118.1563,20.2695 Q118.8594,20.2695 119.5,20.4258 Q120.1563,20.582 120.7188,20.8789 L120.7188,23.5977 Q120.0938,23.0195 119.5,22.7539 Q118.9063,22.4727 118.2813,22.4727 Q116.9375,22.4727 116.25,23.5508 Q115.5625,24.6133 115.5625,26.707 Q115.5625,28.8008 116.25,29.8789 Q116.9375,30.9414 118.2813,30.9414 Q118.9063,30.9414 119.5,30.6758 Q120.0938,30.3945 120.7188,29.8164 L120.7188,32.5352 Z " fill="#000000"/><text fill="#D9B8FF" font-family="Helvetica" font-size="17" lengthAdjust="spacing" textLength="71" x="143.25" y="32.7798">resource</text><line style="stroke:#000D19;stroke-width:0.5;" x1="50" x2="275" y1="46.7891" y2="46.7891"/><text fill="#D9B8FF" font-family="sans-serif" font-size="14" font-weight="bold" lengthAdjust="spacing" textLength="29" x="60" y="68.7842">age</text><text fill="#D9B8FF" font-family="sans-serif" font-size="14" lengthAdjust="spacing" textLength="66" x="89" y="68.7842">: duration</text><text fill="#D9B8FF" font-family="sans-serif" font-size="14" font-weight="bold" lengthAdjust="spacing" textLength="43" x="60" y="95.0811">atime</text><text fill="#D9B8FF" font-family="sans-serif" font-size="14" lengthAdjust="spacing" textLength="70" x="103" y="95.0811">: datetime</text><text fill="#D9B8FF" font-family="sans-serif" font-size="14" font-weight="bold" lengthAdjust="spacing" textLength="43" x="60" y="121.3779">ctime</text><text fill="#D9B8FF" font-family="sans-serif" font-size="14" lengthAdjust="spacing" textLength="70" x="103" y="121.3779">: datetime</text><text fill="#D9B8FF" font-family="sans-serif" font-size="14" font-weight="bold" lengthAdjust="spacing" textLength="14" x="60" y="147.6748">id</text><text fill="#D9B8FF" font-family="sans-serif" font-size="14" lengthAdjust="spacing" textLength="48" x="74" y="147.6748">: string</text><text fill="#D9B8FF" font-family="sans-serif" font-size="14" font-weight="bold" lengthAdjust="spacing" textLength="33" x="60" y="173.9717">kind</text><text fill="#D9B8FF" font-family="sans-serif" font-size="14" lengthAdjust="spacing" textLength="48" x="93" y="173.9717">: string</text><text fill="#D9B8FF" font-family="sans-serif" font-size="14" font-weight="bold" lengthAdjust="spacing" textLength="90" x="60" y="200.2686">last_access</text><text fill="#D9B8FF" font-family="sans-serif" font-size="14" lengthAdjust="spacing" textLength="66" x="150" y="200.2686">: duration</text><text fill="#D9B8FF" font-family="sans-serif" font-size="14" font-weight="bold" lengthAdjust="spacing" textLength="90" x="60" y="226.5654">last_update</text><text fill="#D9B8FF" font-family="sans-serif" font-size="14" lengthAdjust="spacing" textLength="66" x="150" y="226.5654">: duration</text><text fill="#D9B8FF" font-family="sans-serif" font-size="14" font-weight="bold" lengthAdjust="spacing" textLength="48" x="60" y="252.8623">mtime</text><text fill="#D9B8FF" font-family="sans-serif" font-size="14" lengthAdjust="spacing" textLength="70" x="108" y="252.8623">: datetime</text><text fill="#D9B8FF" font-family="sans-serif" font-size="14" font-weight="bold" lengthAdjust="spacing" textLength="43" x="60" y="279.1592">name</text><text fill="#D9B8FF" font-family="sans-serif" font-size="14" lengthAdjust="spacing" textLength="48" x="103" y="279.1592">: string</text><text fill="#D9B8FF" font-family="sans-serif" font-size="14" font-weight="bold" lengthAdjust="spacing" textLength="34" x="60" y="305.4561">tags</text><text fill="#D9B8FF" font-family="sans-serif" font-size="14" lengthAdjust="spacing" textLength="171" x="94" y="305.4561">: dictionary[string, string]</text></g><!--reverse link aws_resource to aws_backup_protected_resource--><g id="link_aws_resource_aws_backup_protected_resource"><path codeLine="46" d="M162.5,531.33 C162.5,562.55 162.5,591 162.5,633.38 " fill="none" id="aws_resource-backto-aws_backup_protected_resource" style="stroke:#FFAF37;stroke-width:2.0;"/><polygon fill="none" points="162.5,513.33,156.5,531.33,168.5,531.33,162.5,513.33" style="stroke:#FFAF37;stroke-width:2.0;"/></g><!--reverse link resource to aws_resource--><g id="link_resource_aws_resource"><path codeLine="47" d="M162.5,336.17 C162.5,381.21 162.5,408.34 162.5,438.51 " fill="none" id="resource-backto-aws_resource" style="stroke:#FFAF37;stroke-width:2.0;"/><polygon fill="none" points="162.5,318.17,156.5,336.17,168.5,336.17,162.5,318.17" style="stroke:#FFAF37;stroke-width:2.0;"/></g><!--SRC=[XPDFZzem4CNlV0fBUqD5Wg8kIzKBHQhQ2wgMlLLLDDYJO97OqNW2ed- - -yQR3NBY0BV8xvTvxusJlLOei2ZvB0eiTaXkv0xQb41GY1MHFQrjRaayf2cayqLV_6ODtmKsKA3uZlaHMKle4ozxBGy6dHCV0-aho4D6jZAg6Sy4njKI6WweTGxEhPX9xoh688nQxfxIj4_sXpxCrMpnY15cII6z8zFfLCsMVUIkrStU5sAh_w2OXKlRMCOePcJnHjrCwOaWP5IqrQzc_0bAQPE9Jy7PSvE935BdVBi7PK-UJY5teOrZ9BHyBd4TjSBbaqeNW_2FQ_18-jK9EBbaLoDLcPHKDv6CAY5qjYA9ukzeFAunRX7M1Ox7duK2Hl_SauzGvPm06S-u-bioMKiGIdj4EYUbrIPcMiVhWe76EbPypK3v7pJh5EcERh4kaZNrAWBMrlYJWSfou4ohJhZw9bIy192o_Zjx3czALVfPFQKOy8dMm90r4xNqhm6TVpNQXtVcTrsriuil_oQJoUsB7mt05-qL]--></g></svg>

<svg xmlns="http://www.w3.org/2000/svg" width="325" height="846" viewBox="0 0 325 846"><rect width="311" height="205.57" x="7" y="633.84" fill="#3D176E" rx="2.5" ry="2.5" style="stroke:#000d19;stroke-width:.5"/><circle cx="22" cy="653.735" r="11" fill="#ADD1B2" style="stroke:#181818;stroke-width:1"/><path d="M24.969 659.375q-.578.297-1.219.438-.64.156-1.344.156-2.5 0-3.828-1.64-1.312-1.657-1.312-4.782t1.312-4.781q1.328-1.656 3.828-1.656.703 0 1.344.156.656.156 1.219.453v2.719q-.625-.578-1.219-.844-.594-.281-1.219-.281-1.343 0-2.031 1.078-.687 1.062-.687 3.156t.687 3.172q.688 1.062 2.031 1.062.625 0 1.219-.265.594-.281 1.219-.86z"/><text x="41" y="659.62" fill="#D9B8FF" font-family="Helvetica" font-size="17" textLength="269">aws_backup_protected_resource</text><path d="M8 673.629h309" style="stroke:#000d19;stroke-width:.5"/><text x="18" y="695.624" fill="#D9B8FF" font-family="sans-serif" font-size="14" font-weight="bold" textLength="133">last_backup_time</text><text x="151" y="695.624" fill="#D9B8FF" font-family="sans-serif" font-size="14" textLength="70">: datetime</text><text x="18" y="721.921" fill="#D9B8FF" font-family="sans-serif" font-size="14" font-weight="bold" textLength="170">last_backup_vault_arn</text><text x="188" y="721.921" fill="#D9B8FF" font-family="sans-serif" font-size="14" textLength="48">: string</text><text x="18" y="748.218" fill="#D9B8FF" font-family="sans-serif" font-size="14" font-weight="bold" textLength="186">last_recovery_point_arn</text><text x="204" y="748.218" fill="#D9B8FF" font-family="sans-serif" font-size="14" textLength="48">: string</text><text x="18" y="774.515" fill="#D9B8FF" font-family="sans-serif" font-size="14" font-weight="bold" textLength="105">resource_arn</text><text x="123" y="774.515" fill="#D9B8FF" font-family="sans-serif" font-size="14" textLength="48">: string</text><text x="18" y="800.812" fill="#D9B8FF" font-family="sans-serif" font-size="14" font-weight="bold" textLength="122">resource_name</text><text x="140" y="800.812" fill="#D9B8FF" font-family="sans-serif" font-size="14" textLength="48">: string</text><text x="18" y="827.109" fill="#D9B8FF" font-family="sans-serif" font-size="14" font-weight="bold" textLength="114">resource_type</text><text x="132" y="827.109" fill="#D9B8FF" font-family="sans-serif" font-size="14" textLength="48">: string</text><rect width="155" height="74.086" x="85" y="438.75" fill="#3D176E" rx="2.5" ry="2.5" style="stroke:#000d19;stroke-width:.5"/><circle cx="100" cy="458.644" r="11" fill="#ADD1B2" style="stroke:#181818;stroke-width:1"/><path d="M102.969 464.285q-.578.297-1.219.438-.64.156-1.344.156-2.5 0-3.828-1.64-1.312-1.657-1.312-4.782t1.312-4.781q1.328-1.656 3.828-1.656.703 0 1.344.156.656.156 1.219.453v2.719q-.625-.579-1.219-.844-.594-.281-1.219-.281-1.344 0-2.031 1.078-.687 1.062-.687 3.156t.687 3.172q.688 1.062 2.031 1.062.625 0 1.219-.265.594-.281 1.219-.86z"/><text x="119" y="464.53" fill="#D9B8FF" font-family="Helvetica" font-size="17" textLength="113">aws_resource</text><path d="M86 478.539h153" style="stroke:#000d19;stroke-width:.5"/><text x="96" y="500.534" fill="#D9B8FF" font-family="sans-serif" font-size="14" font-weight="bold" textLength="26">arn</text><text x="122" y="500.534" fill="#D9B8FF" font-family="sans-serif" font-size="14" textLength="48">: string</text><rect width="227" height="310.758" x="49" y="7" fill="#3D176E" rx="2.5" ry="2.5" style="stroke:#000d19;stroke-width:.5"/><circle cx="117.75" cy="26.895" r="11" fill="#ADD1B2" style="stroke:#181818;stroke-width:1"/><path d="M120.719 32.535q-.578.297-1.219.438-.64.156-1.344.156-2.5 0-3.828-1.64-1.312-1.657-1.312-4.782t1.312-4.781q1.328-1.656 3.828-1.656.703 0 1.344.156.656.156 1.219.453v2.719q-.625-.578-1.219-.844-.594-.281-1.219-.281-1.344 0-2.031 1.078-.687 1.062-.687 3.156t.687 3.172q.688 1.062 2.031 1.062.625 0 1.219-.265.594-.281 1.219-.86z"/><text x="143.25" y="32.78" fill="#D9B8FF" font-family="Helvetica" font-size="17" textLength="71">resource</text><path d="M50 46.789h225" style="stroke:#000d19;stroke-width:.5"/><text x="60" y="68.784" fill="#D9B8FF" font-family="sans-serif" font-size="14" font-weight="bold" textLength="29">age</text><text x="89" y="68.784" fill="#D9B8FF" font-family="sans-serif" font-size="14" textLength="66">: duration</text><text x="60" y="95.081" fill="#D9B8FF" font-family="sans-serif" font-size="14" font-weight="bold" textLength="43">atime</text><text x="103" y="95.081" fill="#D9B8FF" font-family="sans-serif" font-size="14" textLength="70">: datetime</text><text x="60" y="121.378" fill="#D9B8FF" font-family="sans-serif" font-size="14" font-weight="bold" textLength="43">ctime</text><text x="103" y="121.378" fill="#D9B8FF" font-family="sans-serif" font-size="14" textLength="70">: datetime</text><text x="60" y="147.675" fill="#D9B8FF" font-family="sans-serif" font-size="14" font-weight="bold" textLength="14">id</text><text x="74" y="147.675" fill="#D9B8FF" font-family="sans-serif" font-size="14" textLength="48">: string</text><text x="60" y="173.972" fill="#D9B8FF" font-family="sans-serif" font-size="14" font-weight="bold" textLength="33">kind</text><text x="93" y="173.972" fill="#D9B8FF" font-family="sans-serif" font-size="14" textLength="48">: string</text><text x="60" y="200.269" fill="#D9B8FF" font-family="sans-serif" font-size="14" font-weight="bold" textLength="90">last_access</text><text x="150" y="200.269" fill="#D9B8FF" font-family="sans-serif" font-size="14" textLength="66">: duration</text><text x="60" y="226.565" fill="#D9B8FF" font-family="sans-serif" font-size="14" font-weight="bold" textLength="90">last_update</text><text x="150" y="226.565" fill="#D9B8FF" font-family="sans-serif" font-size="14" textLength="66">: duration</text><text x="60" y="252.862" fill="#D9B8FF" font-family="sans-serif" font-size="14" font-weight="bold" textLength="48">mtime</text><text x="108" y="252.862" fill="#D9B8FF" font-family="sans-serif" font-size="14" textLength="70">: datetime</text><text x="60" y="279.159" fill="#D9B8FF" font-family="sans-serif" font-size="14" font-weight="bold" textLength="43">name</text><text x="103" y="279.159" fill="#D9B8FF" font-family="sans-serif" font-size="14" textLength="48">: string</text><text x="60" y="305.456" fill="#D9B8FF" font-family="sans-serif" font-size="14" font-weight="bold" textLength="34">tags</text><text x="94" y="305.456" fill="#D9B8FF" font-family="sans-serif" font-size="14" textLength="171">: dictionary[string, string]</text><path fill="none" d="M162.5 531.33v102.05m0-120.05-6 18h12zm0-177.16v102.34m0-120.34-6 18h12z" style="stroke:#ffaf37;stroke-width:2"/></svg>
